X:1
T:My Sweetheart's the Mule in the Mine
M:3/4
L:1/4
K:C
G/2-G/2| G A G| D E F|E/2-C/2 C2-| C zG/2-G/2| A F A| c B A|A/2-G/2 G2-|\
 G z G/2G/2| A F A| c B A| G A G| E2G/2-G/2| G G G| D E F|E/2-C/2 C2-|\
 C2|
